X:1
T:Title
%%score { ( 1 5 6 ) | ( 2 3 4 ) }
L:1/8
Q:1/4=100
M:4/4
K:G
V:1 treble nm="Grand Piano"
V:5 treble 
V:6 treble 
V:2 bass 
V:3 bass 
V:4 bass 
V:1
 [DB]>[B,G] [B,D]>[B,G] [DB]2 [DB]2 | [Ed]>[Ec] [EG]>[^DA] [=DB]4 | A>F D>F [FA]2 [Fd]2 | %3
w: B.~D.~Ackley * * * * *|||
 c>c B>c [Fd]4 | [DB]>[B,G] [B,D]>[B,G] [DB]2 [DB]2 | [Ed]>[Ec] [EG]>[EA] [^DB]4 | %6
w: |||
 [Ed]2 [EB]2 [Ec]>[Ec] [EB]>[A,EA] | [B,DG]2 [A,CF]2 .[G,B,G]4 | [DGB]2 [^DAB]2 [EGB]2 [G,=FB]2 | %9
w: |||
 [G,EB]>[EA] [CE^G]>[EA] [A,CE]4 | [B,FA]2 [C=FA]2 [CEA]2 [C^DA]2 | z4 d4[K:bass] | %12
w: |||
 [DGB]2 [^DAB]2 [EGB]2 [G,=FB]2 | [G,EB]>[EA] [CE^G]>[EA] [CGe]2 [Ge]2 | %14
w: ||
 [Gd]2 [DGB]>[EGc] [Gd]2 [DGB]2 | [CFA]4 [B,DG]4 |] %16
w: ||
V:2
 [G,,G,]>[G,,G,] [G,,G,]>[G,,G,] [G,,G,]2 [G,,G,]2 | [C,G,]>[C,G,] [C,C]>[C,G,] [G,,G,]4 | %2
 [D,F,D]>[D,A,D] [D,F,]>[D,A,D] [D,D]2 [D,D]2 | [A,EG]>[A,EG] [A,DG]>[A,G][K:bass] [D,A,]4 | %4
 [G,,G,]>[G,,G,] [G,,G,]>[G,,G,] [G,,G,]2 [G,,G,]2 | [C,G,]>[C,G,] [C,C]>[C,E,] [B,,F,]4 | %6
 [E,^G,]2 [E,G,]2 [A,,A,]>[A,,A,] [B,,G,]>C, | z4 z2 (3F,G,-[G,A,] | %8
 .[G,,G,]2 .[F,,F,]2 .[E,,E,]2 [D,,D,]2 | C,,->[C,,C,G,] C,>[C,C] (3z A,,B,, (3z B,,A,, | %10
 [D,,D,]2 [^D,,^D,]2 [E,,E,]2 [=F,,=F,]2 | z z/ [F,C]/ z z/ [E,CD]/ z2 (3[C,C][B,,B,][A,,A,] | %12
 .[G,,G,]2 [F,,F,]2 [E,,E,]2 [D,,D,]2 | C,,->[C,,C,G,] C,>[C,C] [C,,C,]2 [^C,_B,]2 | %14
 [D,B,]2 D,>D, [D,B,]2 D,2 | D,4 G,4 |] %16
V:3
 x8 | x8 | x8 | x4[K:bass] x4 | x8 | x8 | x8 | D,2 D,2 (3z D,E, z2 | x8 | C,2 C,,2 C,2 C,2 | x8 | %11
 [F,,F,]2 [D,,D,]2 (3[D,,D,-F,-F-][E,,D,F,-F-][D,,F,F-] F2 | x8 | C,2 C,,2 z4 | x8 | %15
 z E,F,D, z D, G,,2 |] %16
V:4
 x8 | x8 | x8 | x4[K:bass] x4 | x8 | x8 | x8 | z4 G,,4 | x8 | x8 | x8 | x8 | x8 | x8 | x8 | x8 |] %16
V:5
 x8 | x8 | x8 | x8 | x8 | x8 | x8 | x8 | x8 | x8 | x8 | %11
 [CDB]>[DA] [F,B,D^G]>A (3z[K:bass] E,D,- D,2 | x8 | x8 | x8 | x8 |] %16
V:6
 x8 | x8 | x8 | x8 | x8 | x8 | x8 | x8 | x8 | x8 | x8 | z4 z2[K:bass] D2 | x8 | x8 | x8 | x8 |] %16

